_includes/icons/color-user-male.svg

<svg fill="#666" height="50" viewBox="0 0 48 48" width="50" xmlns="http://www.w3.org/2000/svg"><path d="m14 27c0 2.210938-1.789062 4-4 4-2.210937 0-4-1.789062-4-4 0-2.210937 1.789063-4 4-4 2.210938 0 4 1.789063 4 4" fill="#ffa726"/><path d="m42 27c0 2.210938-1.789062 4-4 4-2.210937 0-4-1.789062-4-4 0-2.210937 1.789063-4 4-4 2.210938 0 4 1.789063 4 4" fill="#ffa726"/><path d="m9 20c0-12.726562 30-8.285156 30 0v10c0 8.285156-6.714844 15-15 15s-15-6.714844-15-15z" fill="#ffb74d"/><path d="m40.890625 19.339844c-.472656-5.976563-2.5625-11.859375-9.890625-13.339844l-2-3h-5c-9.226562 0-17 7.480469-17 18v3.398438l3 3.601562v-6l21-7 7 6v7l3-3.601562v-3.398438c0-.5625-.042969-1.117187-.109375-1.660156" fill="#424242"/><path d="m33 28c0 1.105469-.894531 2-2 2s-2-.894531-2-2 .894531-2 2-2 2 .894531 2 2" fill="#784719"/><path d="m19 28c0 1.105469-.894531 2-2 2s-2-.894531-2-2 .894531-2 2-2 2 .894531 2 2" fill="#784719"/><path d="m19 37h10s-2 3-5 3-5-3-5-3z" fill="#fb8c00"/></svg>

<svg xmlns="http://www.w3.org/2000/svg" viewBox="0 0 48 48" width="50" height="50" fill="#666"><path d="M 14 27 C 14 29.210938 12.210938 31 10 31 C 7.789063 31 6 29.210938 6 27 C 6 24.789063 7.789063 23 10 23 C 12.210938 23 14 24.789063 14 27" fill="#ffa726"/><path d="M 42 27 C 42 29.210938 40.210938 31 38 31 C 35.789063 31 34 29.210938 34 27 C 34 24.789063 35.789063 23 38 23 C 40.210938 23 42 24.789063 42 27" fill="#ffa726"/><path d="M 9 20 C 9 7.273438 39 11.714844 39 20 L 39 30 C 39 38.285156 32.285156 45 24 45 C 15.714844 45 9 38.285156 9 30 Z" fill="#ffb74d"/><path d="M 40.890625 19.339844 C 40.417969 13.363281 38.328125 7.480469 31 6 L 29 3 L 24 3 C 14.773438 3 7 10.480469 7 21 L 7 24.398438 L 10 28 L 10 22 L 31 15 L 38 21 L 38 28 L 41 24.398438 L 41 21 C 41 20.4375 40.957031 19.882813 40.890625 19.339844" fill="#424242"/><path d="M 33 28 C 33 29.105469 32.105469 30 31 30 C 29.894531 30 29 29.105469 29 28 C 29 26.894531 29.894531 26 31 26 C 32.105469 26 33 26.894531 33 28" fill="#784719"/><path d="M 19 28 C 19 29.105469 18.105469 30 17 30 C 15.894531 30 15 29.105469 15 28 C 15 26.894531 15.894531 26 17 26 C 18.105469 26 19 26.894531 19 28" fill="#784719"/><path d="M 19 37 L 29 37 C 29 37 27 40 24 40 C 21 40 19 37 19 37 Z" fill="#fb8c00"/></svg>
